assets/images/sponsors-logos/tpp.svg

<svg xmlns="http://www.w3.org/2000/svg" preserveAspectRatio="xMinYMin" viewBox="15 30 105 60" width="114pt">
  <path d="M81.806265 75.58324c-5.216 0-9.832-4.508-9.832-10.422664 0-5.432 4.672-10.045336 9.776-10.045336 5.485335 0 10.043995 4.341336 10.043995 10.42267 0 5.70133-4.61333 10.04533-9.987995 10.04533m.162665-25.462664c-3.692 0-7.058665 1.409334-9.77333 4.229334v-.008c0-.049334-.001335-.1-.004-.149334v-.028h-.001335c-.092-1.384-1.242665-2.482666-2.653335-2.482666-1.40933 0-2.56133 1.098666-2.652 2.482666h-.01333V89.38191h5.268v-12.984c2.822665 2.87867 6.190665 4.29067 10.15333 4.29067 4.39867 0 7.82133-1.412 10.75067-4.50534 2.716-2.82533 4.236-6.628 4.236-10.698664 0-8.741336-6.46-15.364-15.31067-15.364M49.37493 75.57418c-5.214664 0-9.82933-4.50934-9.82933-10.42534 0-5.430664 4.66933-10.04533 9.77333-10.04533 5.48667 0 10.04667 4.342666 10.04667 10.42533 0 5.70134-4.617334 10.04534-9.99067 10.04534m.16267-25.46667c-3.693334 0-7.056 1.410666-9.770667 4.232v-.008c0-.04667-.001333-.09467-.004-.141334v-.037336H39.7616c-.093334-1.384-1.245334-2.48133-2.656-2.48133-1.408 0-2.561334 1.09733-2.653334 2.48133h-.012v35.21867h5.266667V76.38884c2.825333 2.87867 6.190667 4.29067 10.155997 4.29067 4.4 0 7.81867-1.412 10.753336-4.50667 2.715999-2.824 4.234664-6.62666 4.234664-10.698664 0-8.741336-6.46133-15.366666-15.31333-15.366666M25.44 70.46511V56.807776l4.002666-.004v-.001336H29.464c1.453333 0 2.628-1.176 2.628-2.626664 0-1.450666-1.174667-2.626666-2.628-2.626666h-.021334l-4.002666.004v-5.026667h-.001334c-.025333-1.56-1.294666-2.818666-2.861333-2.818666-1.565333 0-2.834666 1.258666-2.857333 2.818666h-.014667v5.026667h-1.952c-.042666-.004-.086666-.004-.129333-.004-1.448 0-2.624 1.176-2.624 2.626666 0 1.450664 1.176 2.625334 2.624 2.625334h.032v.006666h2.049333V70.57844h.004v.06934c0 6.624 4.917333 10.00133 12.270667 10.00133v-5.36267h-.482667c-3.397333 0-5.918667-1.368-6.057333-4.82133" fill="#001641"/>
  <path d="M100.31453 44.622577s.49067 1.041333.99067 5.814666c0 0-1.93867 6.783997-2.528 12.041333 0 0-.24134-5.377336-4.57867-9.632 0 0 4.392-4.377333 6.116-8.223999" fill="#39607a"/>
  <path d="M89.51386 32.488577s11.46267 2.28 12.64267 15.232c0 0 2.58667-7.536 8.164-12.249334 0 0-7.49733-9.734666-20.80667-2.982666M107.86026 31.756044s2.132 1.033333 3.46534 2.724c0 0 3.784-2.346667 8.02133-1.954667 0 0-5.44133-5.128-11.48667-.769333" fill="#39607a"/>
</svg>

<?xml version="1.0" encoding="UTF-8" standalone="no"?>
<!DOCTYPE svg PUBLIC "-//W3C//DTD SVG 1.1//EN" "http://www.w3.org/Graphics/SVG/1.1/DTD/svg11.dtd">
<svg xmlns="http://www.w3.org/2000/svg" xmlns:xl="http://www.w3.org/1999/xlink" version="1.1" preserveAspectRatio="xMinYMin" viewBox="15 30 105 60" width="105pt" height="5pc" xmlns:dc="http://purl.org/dc/elements/1.1/">
  <metadata> Produced by OmniGraffle 7.5 
    <dc:date>2018-01-16 01:14:47 +0000</dc:date>
  </metadata>
  <defs/>
  <g>
    <title>Canvas 1</title>
    <g>
      <title>Layer 1</title>
      <path d="M 81.806265 75.58324 C 76.590265 75.58324 71.974265 71.07524 71.974265 65.160576 C 71.974265 59.728576 76.646265 55.11524 81.750265 55.11524 C 87.2356 55.11524 91.79426 59.456576 91.79426 65.53791 C 91.79426 71.23924 87.18093 75.58324 81.806265 75.58324 M 81.96893 50.120576 C 78.27693 50.120576 74.910265 51.52991 72.1956 54.34991 L 72.1956 54.34191 C 72.1956 54.292576 72.194265 54.24191 72.1916 54.192576 L 72.1916 54.164576 L 72.190265 54.164576 C 72.098265 52.780576 70.9476 51.68191 69.53693 51.68191 C 68.1276 51.68191 66.9756 52.780576 66.88493 54.164576 L 66.8716 54.164576 L 66.8716 89.38191 L 72.1396 89.38191 L 72.1396 76.39791 C 74.962265 79.27658 78.330265 80.68858 82.29293 80.68858 C 86.6916 80.68858 90.11426 79.27658 93.0436 76.18324 C 95.7596 73.35791 97.2796 69.55524 97.2796 65.484576 C 97.2796 56.74324 90.8196 50.120576 81.96893 50.120576" fill="#001641"/>
      <path d="M 49.37493 75.57418 C 44.160266 75.57418 39.5456 71.06484 39.5456 65.14884 C 39.5456 59.718176 44.21493 55.10351 49.31893 55.10351 C 54.8056 55.10351 59.3656 59.446176 59.3656 65.52884 C 59.3656 71.23018 54.748266 75.57418 49.37493 75.57418 M 49.5376 50.10751 C 45.844266 50.10751 42.4816 51.518176 39.766933 54.33951 L 39.766933 54.33151 C 39.766933 54.28484 39.7656 54.23684 39.762933 54.190176 L 39.762933 54.15284 L 39.7616 54.15284 C 39.668266 52.76884 38.516266 51.67151 37.1056 51.67151 C 35.6976 51.67151 34.544266 52.76884 34.452266 54.15284 L 34.440266 54.15284 L 34.440266 89.37151 L 39.706933 89.37151 L 39.706933 76.38884 C 42.532266 79.26751 45.8976 80.67951 49.86293 80.67951 C 54.26293 80.67951 57.6816 79.26751 60.616266 76.17284 C 63.332265 73.34884 64.85093 69.54618 64.85093 65.474176 C 64.85093 56.73284 58.3896 50.10751 49.5376 50.10751" fill="#001641"/>
      <path d="M 25.44 70.46511 L 25.44 56.807776 L 29.442666 56.803776 L 29.442666 56.80244 L 29.464 56.80244 C 30.917333 56.80244 32.092 55.62644 32.092 54.175776 C 32.092 52.72511 30.917333 51.54911 29.464 51.54911 L 29.442666 51.54911 L 25.44 51.55311 L 25.44 46.526443 L 25.438666 46.526443 C 25.413333 44.966443 24.144 43.707777 22.577333 43.707777 C 21.012 43.707777 19.742667 44.966443 19.72 46.526443 L 19.705333 46.526443 L 19.705333 51.55311 L 17.753333 51.55311 C 17.710667 51.54911 17.666667 51.54911 17.624 51.54911 C 16.176 51.54911 15 52.72511 15 54.175776 C 15 55.62644 16.176 56.80111 17.624 56.80111 L 17.656 56.80111 L 17.656 56.807776 L 19.705333 56.807776 L 19.705333 70.57844 L 19.709333 70.57844 L 19.709333 70.64778 C 19.709333 77.27178 24.626666 80.64911 31.98 80.64911 L 31.98 75.28644 L 31.497333 75.28644 C 28.1 75.28644 25.578666 73.91844 25.44 70.46511" fill="#001641"/>
      <path d="M 100.31453 44.622577 C 100.31453 44.622577 100.8052 45.66391 101.3052 50.437243 C 101.3052 50.437243 99.36653 57.22124 98.7772 62.478576 C 98.7772 62.478576 98.53586 57.10124 94.19853 52.846576 C 94.19853 52.846576 98.59053 48.469243 100.31453 44.622577" fill="#39607a"/>
      <path d="M 89.51386 32.488577 C 89.51386 32.488577 100.97653 34.768577 102.15653 47.720577 C 102.15653 47.720577 104.7432 40.184577 110.32053 35.471243 C 110.32053 35.471243 102.8232 25.736577 89.51386 32.488577" fill="#39607a"/>
      <path d="M 107.86026 31.756044 C 107.86026 31.756044 109.99226 32.789377 111.3256 34.480044 C 111.3256 34.480044 115.1096 32.133377 119.34693 32.525377 C 119.34693 32.525377 113.9056 27.397377 107.86026 31.756044" fill="#39607a"/>
    </g>
  </g>
</svg>
